tools/download-figma-icons/icons/outlined-large/bell.svg

<svg width="64" height="64" viewBox="0 0 64 64" fill="none" xmlns="http://www.w3.org/2000/svg">
<path fill-rule="evenodd" clip-rule="evenodd" d="M53.3878 52.5H41.8388H24.4678H11.4998C9.57076 52.5 7.99976 50.93 7.99976 49C7.99976 47.07 9.57076 45.5 11.4998 45.5H12.9478H51.9478H53.3878C55.3178 45.5 56.8878 47.07 56.8878 49C56.8878 50.93 55.3178 52.5 53.3878 52.5ZM32.4478 61C29.2028 61 26.5068 58.611 26.0248 55.5H38.8698C38.3878 58.611 35.6918 61 32.4478 61ZM15.9478 27.51C15.9478 20.193 20.8468 13.677 27.8648 11.66C30.1048 11.013 32.4598 10.851 34.7578 11.175C35.5248 11.282 36.2838 11.444 37.0328 11.661C44.0478 13.679 48.9478 20.196 48.9478 27.51V42.5H15.9478V27.51ZM28.9478 6.5C28.9478 4.57 30.5178 3 32.4478 3C34.3768 3 35.9478 4.57 35.9478 6.5V8.327C35.8893 8.31665 35.8308 8.30978 35.7724 8.30293C35.7181 8.29654 35.6638 8.29017 35.6098 8.281C35.2808 8.228 34.9508 8.183 34.6188 8.146L34.5273 8.1355C34.3482 8.11488 34.1702 8.09438 33.9908 8.079C33.5948 8.049 33.2008 8.033 32.8038 8.026C32.752 8.02469 32.7004 8.0215 32.6488 8.0183L32.6488 8.0183L32.6488 8.0183C32.5819 8.01415 32.515 8.01 32.4478 8.01C32.3832 8.01 32.3196 8.01382 32.256 8.01764L32.256 8.01764C32.2023 8.02087 32.1488 8.02408 32.0948 8.025C31.6978 8.033 31.2998 8.048 30.9028 8.08C30.7176 8.09514 30.5332 8.11661 30.3488 8.13808L30.2808 8.146C29.9458 8.183 29.6128 8.228 29.2808 8.282C29.2301 8.29022 29.1792 8.29614 29.1284 8.30206L29.1284 8.30206C29.0679 8.3091 29.0075 8.31613 28.9478 8.327V6.5ZM53.3878 42.5H51.9478V27.51C51.9478 19.25 46.6518 11.861 38.9478 9.141V6.5C38.9478 2.916 36.0318 0 32.4478 0C28.8638 0 25.9478 2.916 25.9478 6.5V9.14C18.2418 11.86 12.9478 19.248 12.9478 27.51V42.5H11.4998C7.91576 42.5 4.99976 45.416 4.99976 49C4.99976 52.584 7.91576 55.5 11.4998 55.5H23.0008C23.5028 60.27 27.5468 64 32.4478 64C37.3478 64 41.3918 60.27 41.8938 55.5H53.3878C56.9718 55.5 59.8878 52.584 59.8878 49C59.8878 45.416 56.9718 42.5 53.3878 42.5ZM32.4425 13.5146C25.1415 13.5146 19.2015 19.4536 19.2015 26.7546C19.2015 27.5826 19.8735 28.2546 20.7015 28.2546C21.5295 28.2546 22.2015 27.5826 22.2015 26.7546C22.2015 21.1086 26.7955 16.5146 32.4425 16.5146C33.2705 16.5146 33.9425 15.8426 33.9425 15.0146C33.9425 14.1866 33.2705 13.5146 32.4425 13.5146ZM19.2013 32.7549C19.2013 31.9269 19.8733 31.2549 20.7013 31.2549C21.5293 31.2549 22.2013 31.9269 22.2013 32.7549V34.7549C22.2013 35.5829 21.5293 36.2549 20.7013 36.2549C19.8733 36.2549 19.2013 35.5829 19.2013 34.7549V32.7549Z" fill="black"/>
</svg>

<svg width="64" height="64" viewBox="0 0 64 64" fill="none" xmlns="http://www.w3.org/2000/svg"><path fill-rule="evenodd" clip-rule="evenodd" d="M53.388 52.5H11.5C9.57 52.5 8 50.93 8 49s1.57-3.5 3.5-3.5h41.888c1.93 0 3.5 1.57 3.5 3.5s-1.57 3.5-3.5 3.5ZM32.448 61a6.51 6.51 0 0 1-6.423-5.5H38.87c-.482 3.111-3.178 5.5-6.422 5.5Zm-16.5-33.49c0-7.317 4.899-13.833 11.917-15.85a16.546 16.546 0 0 1 9.168.001c7.015 2.018 11.915 8.535 11.915 15.849V42.5h-33V27.51Zm13-21.01c0-1.93 1.57-3.5 3.5-3.5 1.929 0 3.5 1.57 3.5 3.5v1.827a3.026 3.026 0 0 0-.176-.024 2.998 2.998 0 0 1-.162-.022 20.511 20.511 0 0 0-.991-.135l-.092-.01c-.179-.021-.357-.042-.536-.057-.396-.03-.79-.046-1.187-.053a4.231 4.231 0 0 1-.155-.008c-.067-.004-.134-.008-.201-.008-.065 0-.128.004-.192.008a3.74 3.74 0 0 1-.161.007c-.397.008-.795.023-1.192.055-.185.015-.37.037-.554.058l-.068.008c-.335.037-.668.082-1 .136-.05.008-.102.014-.153.02a2.84 2.84 0 0 0-.18.025V6.5Zm24.44 36h-1.44V27.51c0-8.26-5.296-15.649-13-18.369V6.5c0-3.584-2.916-6.5-6.5-6.5a6.508 6.508 0 0 0-6.5 6.5v2.64c-7.706 2.72-13 10.108-13 18.37V42.5H11.5A6.508 6.508 0 0 0 5 49c0 3.584 2.916 6.5 6.5 6.5H23c.503 4.77 4.547 8.5 9.448 8.5 4.9 0 8.944-3.73 9.446-8.5h11.494c3.584 0 6.5-2.916 6.5-6.5s-2.916-6.5-6.5-6.5ZM32.443 13.515c-7.301 0-13.241 5.939-13.241 13.24a1.5 1.5 0 0 0 3 0c0-5.646 4.593-10.24 10.24-10.24a1.5 1.5 0 0 0 0-3ZM19.2 32.755a1.5 1.5 0 0 1 3 0v2a1.5 1.5 0 0 1-3 0v-2Z" fill="currentColor"/></svg>
